X: 10498
T: Doodler's
R: hornpipe
M: 4/4
K: Gmajor
|:Bc|d2 dB c2 cA|Bc dB G2 AB|c2 cA B2 BG|Ad (3^cde d2 B=c|
d2 dB c2 cA|Bc dB G2 AB|cBAG FGAF|G2 G2 G2:|
|:DC|B,D GD B,D GD|CE GE CE GE|DF AF DF AF|GA Bc d2 DC|
B,D GD B,D GD|CE GE CE GE|DF AB cA FA|G2 G2 G2:|

